src/main/resources/icons/RIcons/icons/table/newWindow.svg

<svg width="16" height="16" viewBox="0 0 16 16" fill="none" xmlns="http://www.w3.org/2000/svg"><rect id="frame" width="16" height="16" fill="none"/><path fill-rule="evenodd" clip-rule="evenodd" d="M2 2h11v3h-2V4H4v7h1v2H2V2z" fill="#6E6E6E"/><path fill-rule="evenodd" clip-rule="evenodd" d="M14 6H6v8h8V6zm-2 2H8v4h4V8z" fill="#6E6E6E"/></svg>

<svg width="16" height="16" viewBox="0 0 16 16" fill="none" xmlns="http://www.w3.org/2000/svg">
<path fill-rule="evenodd" clip-rule="evenodd" d="M2 2H13V4V5H11V4H4V11H5V13H2V12V11V4V2Z" fill="#6E6E6E"/>
<path fill-rule="evenodd" clip-rule="evenodd" d="M14 6H6V14H14V6ZM12 8H8V12H12V8Z" fill="#6E6E6E"/>
</svg>
